X: 3272
M: 6/8
L: 1/8
K: G
uB |\
|: B |\
dBB B2e | dBB B2A |\
|: B |\
aBB gBe | dBA A2e | dBA A2 :|\
|: g |\
gfe gfe | fed efg | dBB B2e | dBB B2g |\
agf gfe | fed efg | dcA A2e | dBA A2 :|


